X: 30928
T: Over The Moor To Peggy
R: reel
M: 4/4
K: Gmajor
d2BG DGBG|dGBG dgeg|d2BG DGBG|AAAB c2Bc|
d2BG DGBG|dGBG dgeg|d2BG DGBG|AAAB c2Bc|
dg(3gag dgeg|dg(3gag c2Bc|dg(3gag defe|dcAB c2Bc|
dg(3gag dgeg|dg(3gag c2Bc|dg(3gag agfe|dcAB c2Bc|

